packages/core/src/svgs/tokens/branded/MAN.svg

<svg width="24" height="24" viewBox="0 0 24 24" fill="none" xmlns="http://www.w3.org/2000/svg">
<path fill-rule="evenodd" clip-rule="evenodd" d="M6.99999 18.2503C6.99999 17.0854 6.20326 16.1065 5.125 15.829V5.40034L11.2499 12.0129C11.1773 12.0836 11.1037 12.1548 11.0297 12.2265C9.6917 13.5218 8.19076 14.9749 8.24998 17.0004C8.29373 18.4565 9.19995 20.7815 11.9999 20.7503C14.7999 20.7191 15.7499 18.6191 15.7499 17.0004C15.7499 14.7315 14.2937 13.3752 12.7625 12.0129C13.2074 11.5356 14.045 10.7259 14.6042 10.1851C14.9093 9.89027 15.1316 9.67532 15.1625 9.63784L15.1664 9.63288C15.2831 9.49055 15.6271 9.07034 15.2812 8.64407C15 8.30033 14.5749 8.43158 14.3812 8.53158L11.9999 10.7816C9.87501 8.55033 5.64374 4.03159 5.31874 3.65658C5.00624 3.29409 4.73749 3.23784 4.64373 3.25034C4.08124 3.27533 3.88125 3.73784 3.87499 3.96283V15.829C2.79673 16.1065 2 17.0854 2 18.2503C2 19.631 3.11928 20.7503 4.49999 20.7503C5.8807 20.7503 6.99999 19.631 6.99999 18.2503ZM18.8749 8.17157V20.0503C18.8938 20.294 19.0374 20.7752 19.5187 20.7503C19.9936 20.7254 20.1249 20.2753 20.1249 20.0503V8.17157C21.2032 7.89404 22 6.91524 22 5.75034C22 4.36962 20.8807 3.25034 19.5 3.25034C18.1192 3.25034 17 4.36962 17 5.75034C17 6.91524 17.7967 7.89404 18.8749 8.17157ZM20.4373 5.75C20.4373 6.26777 20.0175 6.68749 19.4997 6.68749C18.982 6.68749 18.5623 6.26777 18.5623 5.75C18.5623 5.23224 18.982 4.8125 19.4997 4.8125C20.0175 4.8125 20.4373 5.23224 20.4373 5.75ZM9.49978 16.8437C9.49978 15.4938 11.1248 14 11.9998 13.25C12.831 14.0125 14.4998 15.6562 14.4998 16.8437C14.4998 18.4125 13.6435 19.4375 11.981 19.4999C10.3248 19.5625 9.49978 18.1874 9.49978 16.8437ZM4.49978 19.1874C5.01755 19.1874 5.43728 18.7677 5.43728 18.25C5.43728 17.7322 5.01755 17.3124 4.49978 17.3124C3.98202 17.3124 3.56229 17.7322 3.56229 18.25C3.56229 18.7677 3.98202 19.1874 4.49978 19.1874Z" fill="#375980"/>
</svg>

<svg xmlns="http://www.w3.org/2000/svg" width="24" height="24" fill="none" viewBox="0 0 24 24">
    <path fill="#375980" fill-rule="evenodd" d="M7 18.25a2.5 2.5 0 0 0-1.875-2.421V5.4l6.125 6.613-.22.213C9.692 13.522 8.19 14.976 8.25 17c.044 1.456.95 3.782 3.75 3.75 2.8-.03 3.75-2.13 3.75-3.75 0-2.268-1.456-3.625-2.988-4.987.445-.477 1.283-1.287 1.842-1.828.305-.295.528-.51.559-.547l.003-.005c.117-.142.461-.563.115-.989-.281-.344-.706-.212-.9-.112L12 10.782C9.875 8.55 5.644 4.032 5.319 3.657c-.313-.363-.582-.42-.675-.407a.776.776 0 0 0-.769.713v11.866A2.501 2.501 0 1 0 7 18.25M18.875 8.172V20.05c.019.244.162.725.644.7.475-.025.606-.475.606-.7V8.172a2.501 2.501 0 1 0-1.25 0m1.562-2.422a.938.938 0 1 1-1.875 0 .938.938 0 0 1 1.875 0M9.5 16.844c0-1.35 1.625-2.844 2.5-3.594.831.762 2.5 2.406 2.5 3.594 0 1.569-.857 2.593-2.519 2.656-1.656.063-2.481-1.313-2.481-2.656m-5 2.343a.937.937 0 1 0 0-1.875.937.937 0 0 0 0 1.875" clip-rule="evenodd"/>
</svg>
